X: 358
T: The Groves of Dromore
M:3/4
L:1/8
B:O'Neill's 358
N:"Tenderly."
N:"collected by J. O'Neill."
Z:Transcribed by Chris Falt, cfalt@trytel.com
K:G
d>c | B2 d2 cA | G2 AG FD/2E/2 | F2 G2 GA | B2 c2de |
=f2 d2 B2 | c4 dc | B2 d2 cA | G2 AG FD/2e/2 |
F2 G2 GA | B2 d2 ((3cAG) | A2 G2 G2 | G4 ||
GA | B2 c2 de | =f2 gf ec | d3 cBG | B2 c2 de |
=f3 dcB | c4 dc | B2 d2 cA | G2 AG FD/2E/2 |
F2 G2 GA | B2 d2 ((3cAG) | A2 G2 G2 | G4 ||


